app/img/src/logo/Air_Canada_Logo.svg

<svg width="213" height="27" viewBox="0 0 213 27" fill="none" xmlns="http://www.w3.org/2000/svg">
<path d="M14.6628 19.1679C14.6628 18.2748 15.1586 18.1374 16.0087 18.6183C17.567 19.4427 19.2671 20.3359 19.2671 20.3359C19.3379 19.855 19.7629 19.4427 20.6838 19.6489C21.5338 19.855 22.5255 20.0611 22.5255 20.0611C22.5255 20.0611 22.0296 18.8931 21.7463 18.4122C21.3213 17.4504 21.7463 17.0382 22.1713 16.9008C22.1713 16.9008 21.6046 16.4886 21.1796 16.2137C20.3296 15.6641 20.5421 15.0458 21.3213 14.7023C22.4546 14.2214 23.8713 13.6031 23.8713 13.6031C23.4463 13.3282 22.8796 12.6412 23.5171 11.8168C24.0838 10.9924 24.9338 9.89313 24.9338 9.89313C24.9338 9.89313 23.3755 9.89313 22.3838 9.89313C21.4629 9.89313 21.2504 9.13741 21.2504 8.65649C21.2504 8.65649 19.7629 9.68702 18.7004 10.374C17.7795 10.9924 17.0003 10.374 17.142 9.34351C17.3545 7.76336 17.567 5.9771 17.567 5.9771C17.0003 6.32061 16.0795 6.32061 15.6545 5.42748C14.9461 4.25954 14.167 2.67939 14.167 2.67939C14.167 2.67939 13.4586 4.19084 12.8211 5.49618C12.3961 6.38931 11.4044 6.38931 10.9086 6.0458C10.9086 6.0458 11.1211 7.83206 11.3336 9.41221C11.4752 10.4427 10.6252 10.9924 9.7752 10.4427C8.71268 9.75573 7.22515 8.72519 7.22515 8.72519C7.22515 9.20611 7.01264 9.96183 6.09179 9.96183C5.1001 9.96183 3.54174 9.96183 3.54174 9.96183C3.54174 9.96183 4.39176 11.1298 4.95843 11.8855C5.52511 12.7099 5.02927 13.3969 4.60426 13.6718C4.60426 13.6718 6.02096 14.2901 7.15431 14.771C8.00433 15.1145 8.21683 15.6641 7.29598 16.2824C6.87097 16.5573 6.30429 16.9695 6.30429 16.9695C6.7293 17.1069 7.15431 17.5191 6.7293 18.4809C6.5168 18.9618 5.95012 20.1298 5.95012 20.1298C5.95012 20.1298 6.94181 19.9237 7.79182 19.7176C8.71268 19.5115 9.20852 19.9237 9.20852 20.4046C9.20852 20.4046 10.8377 19.5115 12.3961 18.687C13.2461 18.2061 13.7419 18.4122 13.7419 19.2366V21.2977C13.7419 22.5344 13.5294 23.9084 13.0336 24.5954C6.94181 23.9771 1.91254 19.3053 1.91254 13.1221C1.91254 6.73282 7.43765 1.51145 14.167 1.51145C20.9671 1.51145 26.4214 6.66412 26.4214 13.0534C26.4214 19.0305 21.6754 23.9084 15.5128 24.5267V26.1069C22.738 25.4886 28.3339 19.855 28.3339 13.0534C28.4047 5.83969 22.0296 0 14.167 0C6.37513 0 0 5.83969 0 13.1221C0 19.5115 4.8876 24.8015 11.4752 25.9695C12.6086 26.1756 13.2461 26.313 13.8836 27C14.592 25.7634 14.7336 23.1527 14.7336 21.6412V19.1679H14.6628Z" fill="black"/>
<path d="M71.9678 20.13V6.11468H78.9804C82.7347 6.11468 84.4347 7.62614 84.5055 9.6185C84.5764 10.5116 84.3639 11.4048 83.7263 12.0918C83.0888 12.7788 82.8055 13.0536 81.6013 13.6032L86.9139 20.13H82.9472L78.2721 14.359H75.0845V20.13H71.9678ZM75.1553 12.4353H76.572C80.4679 12.4353 81.2471 11.817 81.2471 9.96201C81.2471 8.17575 79.5471 7.90094 76.997 7.90094H75.0845V12.4353H75.1553Z" fill="black"/>
<path d="M40.3047 20.13L46.609 6.11468H50.4341L56.6675 20.13H52.7716L51.0716 16.3513H44.4131L42.7131 20.13H40.3047ZM45.2631 14.4964H50.2924L47.8132 8.93148L45.2631 14.4964Z" fill="black"/>
<path d="M64.6025 6.11469H61.2024V20.13H64.6025V6.11469Z" fill="black"/>
<path d="M111.21 19.6492C109.581 20.2675 107.597 20.5423 105.26 20.5423C102.426 20.5423 100.16 19.8553 98.6013 18.55C96.9721 17.2446 96.1929 15.3897 96.1929 13.0538C96.1929 10.6492 96.9721 8.86295 98.6013 7.55761C100.23 6.25226 102.497 5.63394 105.472 5.63394C107.385 5.63394 109.297 5.84005 111.139 6.18356V8.45074C109.014 7.83242 107.031 7.55761 105.614 7.55761C103.772 7.55761 102.356 8.03852 101.364 8.93165C100.372 9.89348 99.8763 11.1988 99.8763 12.9851C99.8763 14.7026 100.372 16.008 101.505 16.9698C102.568 17.9317 104.056 18.4126 105.968 18.4126C107.668 18.4126 109.581 18.0691 111.281 17.382V19.6492H111.21Z" fill="black"/>
<path d="M115.32 20.13L121.624 6.11468H125.449L131.682 20.13H127.786L126.086 16.3513H119.428L117.728 20.13H115.32ZM120.278 14.4964H125.307L122.828 8.93148L120.278 14.4964Z" fill="black"/>
<path d="M157.041 20.13L163.345 6.11468H167.17L173.404 20.13H169.508L167.808 16.3513H161.149L159.449 20.13H157.041ZM161.999 14.4964H167.029L164.55 8.93148L161.999 14.4964Z" fill="black"/>
<path d="M196.637 20.13L202.942 6.11468H206.767L213 20.13H209.104L207.404 16.3513H200.746L199.046 20.13H196.637ZM201.596 14.4964H206.625L204.146 8.93148L201.596 14.4964Z" fill="black"/>
<path d="M136.499 20.13V6.11468H140.394L149.461 16.0765V6.11468H152.224V20.13H148.682L139.261 9.6185V20.13H136.499Z" fill="black"/>
<path d="M178.22 20.13V6.11468H185.233C187.712 6.11468 189.625 6.73301 190.97 7.83224C192.316 9.00018 192.954 10.649 192.954 12.7788C192.954 15.1147 192.245 16.9009 190.829 18.1376C189.412 19.4429 187.429 20.0613 184.879 20.0613H178.22V20.13ZM181.549 18.1376H184.029C185.8 18.1376 187.075 17.7254 187.995 16.9009C188.845 16.0765 189.27 14.7712 189.341 13.0536C189.341 11.7483 188.987 10.5803 188.279 9.6872C187.783 9.06888 187.216 8.65667 186.579 8.38186C185.87 8.17575 184.95 8.03835 183.604 8.03835H181.549V18.1376Z" fill="black"/>
</svg>

<svg width="213" height="27" fill="none" xmlns="http://www.w3.org/2000/svg"><path d="M14.663 19.168c0-.893.496-1.03 1.346-.55 1.558.825 3.258 1.718 3.258 1.718.07-.481.496-.893 1.417-.687.85.206 1.841.412 1.841.412s-.495-1.168-.779-1.649c-.425-.962 0-1.374.425-1.511 0 0-.566-.412-.991-.687-.85-.55-.638-1.168.141-1.512 1.134-.48 2.55-1.099 2.55-1.099-.425-.275-.991-.962-.354-1.786a52.684 52.684 0 011.417-1.924h-2.55c-.921 0-1.134-.756-1.134-1.237 0 0-1.487 1.031-2.55 1.718-.92.618-1.7 0-1.558-1.03.213-1.58.425-3.367.425-3.367-.567.344-1.488.344-1.912-.55-.709-1.167-1.488-2.748-1.488-2.748s-.708 1.512-1.346 2.817c-.425.893-1.417.893-1.912.55 0 0 .212 1.786.425 3.366.141 1.03-.709 1.58-1.559 1.03-1.062-.686-2.55-1.717-2.55-1.717 0 .481-.212 1.237-1.133 1.237h-2.55s.85 1.168 1.416 1.924c.567.824.071 1.51-.354 1.786 0 0 1.417.618 2.55 1.099.85.343 1.063.893.142 1.511-.425.275-.992.688-.992.688.425.137.85.55.425 1.51-.212.482-.779 1.65-.779 1.65s.992-.206 1.842-.412c.92-.206 1.417.206 1.417.687 0 0 1.629-.893 3.187-1.718.85-.48 1.346-.275 1.346.55v2.06c0 1.237-.213 2.611-.708 3.298-6.092-.618-11.121-5.29-11.121-11.473 0-6.39 5.525-11.61 12.254-11.61 6.8 0 12.254 5.152 12.254 11.541 0 5.977-4.746 10.855-10.908 11.474v1.58c7.225-.618 12.82-6.252 12.82-13.054C28.406 5.84 22.03 0 14.168 0 6.375 0 0 5.84 0 13.122c0 6.39 4.888 11.68 11.475 12.848 1.134.206 1.771.343 2.409 1.03.708-1.237.85-3.847.85-5.359v-2.473h-.071zM71.968 20.13V6.115h7.012c3.755 0 5.455 1.511 5.525 3.503.071.894-.141 1.787-.779 2.474-.637.687-.92.962-2.125 1.511l5.313 6.527h-3.967l-4.675-5.771h-3.188v5.771h-3.116zm3.187-7.695h1.417c3.896 0 4.675-.618 4.675-2.473 0-1.786-1.7-2.061-4.25-2.061h-1.912v4.534h.07zM40.305 20.13l6.304-14.015h3.825l6.233 14.015h-3.895l-1.7-3.779h-6.659l-1.7 3.779h-2.408zm4.958-5.634h5.03l-2.48-5.565-2.55 5.565zM64.603 6.115h-3.4V20.13h3.4V6.115zM111.21 19.65c-1.629.617-3.613.892-5.95.892-2.834 0-5.1-.687-6.659-1.992-1.629-1.305-2.408-3.16-2.408-5.496 0-2.405.78-4.191 2.408-5.496 1.629-1.306 3.896-1.924 6.871-1.924 1.913 0 3.825.206 5.667.55V8.45c-2.125-.619-4.108-.893-5.525-.893-1.842 0-3.258.48-4.25 1.374-.992.961-1.488 2.267-1.488 4.053 0 1.718.496 3.023 1.629 3.985 1.063.962 2.551 1.443 4.463 1.443 1.7 0 3.613-.344 5.313-1.031v2.267h-.071zM115.32 20.13l6.304-14.015h3.825l6.233 14.015h-3.896l-1.7-3.779h-6.658l-1.7 3.779h-2.408zm4.958-5.634h5.029l-2.479-5.565-2.55 5.565zM157.041 20.13l6.304-14.015h3.825l6.234 14.015h-3.896l-1.7-3.779h-6.659l-1.7 3.779h-2.408zm4.958-5.634h5.03l-2.479-5.565-2.551 5.565zM196.637 20.13l6.305-14.015h3.825L213 20.13h-3.896l-1.7-3.779h-6.658l-1.7 3.779h-2.409zm4.959-5.634h5.029l-2.479-5.565-2.55 5.565zM136.499 20.13V6.115h3.895l9.067 9.961V6.115h2.763V20.13h-3.542l-9.421-10.511V20.13h-2.762zM178.22 20.13V6.115h7.013c2.479 0 4.392.618 5.737 1.717 1.346 1.168 1.984 2.817 1.984 4.947 0 2.336-.709 4.122-2.125 5.359-1.417 1.305-3.4 1.923-5.95 1.923h-6.659v.069zm3.329-1.992h2.48c1.771 0 3.046-.413 3.966-1.237.85-.825 1.275-2.13 1.346-3.847 0-1.306-.354-2.474-1.062-3.367a4.336 4.336 0 00-1.7-1.305c-.709-.206-1.629-.344-2.975-.344h-2.055v10.1z" fill="#000"/></svg>
